X:1
T:Title
%%score ( 1 2 ) ( 3 4 )
L:1/8
Q:1/4=90
M:4/4
K:Ab
V:1 treble nm="Midi_20"
V:2 treble 
V:3 bass nm="Midi_20"
V:4 bass 
V:1
"^Rothley (86. 84.)""^John Goss\n(1800-80)" E2 | A2 c2 e3 d | c2 B2 A2 G2 | F2 A2 G2 F2 | E6 || %5
 A2 | F3 F d2 B2 | A2 G2 e2 A2 | c6 B2 | A6 |] %10
V:2
 C2 | E2 E2 E3 E | E2 G2 F2 =E2 | F2 F2 _E2 =D2 | E6 || E2 | D3 D F2 F2 | E2 E2 E2 C2 | E4 D4 | %9
 C6 |] %10
V:3
 A,2 | C2 A,2 B,3 B, | A,2 D2 C2 B,2 | C2 C2 B,2 A,2 | G,6 || A,2 | A,3 A, B,2 D2 | %7
 C2 B,2 A,2 A,2 | A,4 G,4 | A,6 |] %10
V:4
 A,,2 | A,,2 A,2 G,3 G, | A,2 =E,2 F,2 G,2 | A,2 F,2 B,2 B,,2 | E,6 || C,2 | D,3 D, B,,2 B,,2 | %7
 E,2 D,2 C,2 F,2 | E,4 E,4 | A,,6 |] %10

